src/images/icon/icon_wakeup_active.svg

<svg height="20" viewBox="0 0 20 20" width="20" xmlns="http://www.w3.org/2000/svg"><g fill="none" fill-rule="evenodd"><path d="m17.5857864 3.58578644c.7810486.78104858.7810486 2.04737854 0 2.82842712l-.630235.63071723c-.6706903-1.17697576-1.6315054-2.16717526-2.7851057-2.87324683l.5869136-.58589752c.7810486-.78104859 2.0473786-.78104859 2.8284271 0z" fill="#0080ff"/><path d="m2.41421356 3.58578644c.78104859-.78104859 2.04737854-.78104859 2.82842713 0l.58624928.58630034c-1.15329454.70604012-2.11386868 1.69607803-2.78443234 2.87282149l-.63024407-.63069471c-.78104858-.78104858-.78104858-2.04737854 0-2.82842712z" fill="#0080ff"/><g fill-rule="nonzero"><path d="m9.99997807 4.75c1.72592163 0 3.28841923.69954801 4.41944013 1.83056537 1.131035 1.13103154 1.8305818 2.69354139 1.8305818 4.41943463 0 1.7258905-.6995517 3.2883976-1.8305885 4.4194285-1.1310265 1.1310206-2.6935298 1.8305715-4.41944804 1.8305715-1.72588723 0-3.28837422-.6995549-4.41939094-1.8305811-1.13102428-1.1310337-1.83057252-2.6935437-1.83057252-4.4194408 0-1.72588662.69954944-3.28838307 1.83057327-4.41940689 1.13102118-1.13102118 2.69351439-1.83057121 4.4194048-1.83057121z" stroke="#1ee7e7" stroke-width="1.5"/><path d="m9.21650266 11.7646353 3.84243894-3.92359452s.2580351-.26116641.4829955-.05753615c.0671994.06177845.1443736.23518235-.0299247.50721965l-4.0120124 5.20927572s-.30790961.4666527-.67330618-.0053029l-1.73038378-2.5912481s-.20579808-.3505198.05144952-.5610438c.08662419-.0705282.28349734-.1802976.52525757.0593922z" fill="#0080ff"/></g></g></svg>

<?xml version="1.0" encoding="UTF-8"?>
<svg width="20px" height="20px" viewBox="0 0 20 20" version="1.1" xmlns="http://www.w3.org/2000/svg" xmlns:xlink="http://www.w3.org/1999/xlink">
    <title>icon_wakeup_active</title>
    <g id="Dashboard" stroke="none" stroke-width="1" fill="none" fill-rule="evenodd">
        <g id="10-开发空间-列表交互补充" transform="translate(-271.000000, -1203.000000)">
            <g id="疑问备份" transform="translate(271.000000, 1203.000000)">
                <path d="M17.5857864,3.58578644 C18.366835,4.36683502 18.366835,5.63316498 17.5857864,6.41421356 L16.9555514,7.04493079 C16.2848611,5.86795503 15.324046,4.87775553 14.1704457,4.17168396 L14.7573593,3.58578644 C15.5384079,2.80473785 16.8047379,2.80473785 17.5857864,3.58578644 Z" id="形状结合" fill="#0080FF"></path>
                <path d="M2.41421356,3.58578644 C3.19526215,2.80473785 4.4615921,2.80473785 5.24264069,3.58578644 L5.24264069,3.58578644 L5.82888997,4.17208678 C4.67559543,4.8781269 3.71502129,5.86816481 3.04445763,7.04490827 L2.41421356,6.41421356 C1.63316498,5.63316498 1.63316498,4.36683502 2.41421356,3.58578644 Z" id="形状结合" fill="#0080FF"></path>
                <path d="M9.99997807,4.75 C11.7258997,4.75 13.2883973,5.44954801 14.4194182,6.58056537 C15.5504532,7.71159691 16.25,9.27410676 16.25,11 C16.25,12.7258905 15.5504483,14.2883976 14.4194115,15.4194285 C13.288385,16.5504491 11.7258817,17.25 9.99996346,17.25 C8.27407623,17.25 6.71158924,16.5504451 5.58057252,15.4194189 C4.44954824,14.2883852 3.75,12.7258752 3.75,10.9999781 C3.75,9.27409148 4.44954944,7.71159503 5.58057327,6.58057121 C6.71159445,5.44955003 8.27408766,4.75 9.99997807,4.75 Z" id="路径" stroke="#1EE7E7" stroke-width="1.5" fill-rule="nonzero"></path>
                <path d="M9.21650266,11.7646353 L13.0589416,7.84104078 C13.0589416,7.84104078 13.3169767,7.57987437 13.5419371,7.78350463 C13.6091365,7.84528308 13.6863107,8.01868698 13.5120124,8.29072428 L9.5,13.5 C9.5,13.5 9.19209039,13.9666527 8.82669382,13.4946971 L7.09631004,10.903449 C7.09631004,10.903449 6.89051196,10.5529292 7.14775956,10.3424052 C7.23438375,10.271877 7.4312569,10.1621076 7.67301713,10.4017974 L9.21650266,11.7646353 Z" id="路径" fill="#0080FF" fill-rule="nonzero"></path>
            </g>
        </g>
    </g>
</svg>
